flaticon/symbols/spirit-1.svg

<svg xmlns="http://www.w3.org/2000/svg" width="32" height="32" viewBox="0 0 24 24">
    <path d="M 3.632812 10.136719 C 2.519531 10.136719 1.613281 11.042969 1.613281 12.152344 C 1.613281 13.265625 2.519531 14.171875 3.632812 14.171875 C 4.742188 14.171875 5.648438 13.265625 5.648438 12.152344 C 5.648438 11.042969 4.742188 10.136719 3.632812 10.136719 Z M 3.632812 13.363281 C 2.964844 13.363281 2.421875 12.820312 2.421875 12.152344 C 2.421875 11.488281 2.964844 10.945312 3.632812 10.945312 C 4.296875 10.945312 4.839844 11.488281 4.839844 12.152344 C 4.839844 12.820312 4.296875 13.363281 3.632812 13.363281 Z M 3.632812 13.363281"/>
    <path d="M 23.101562 13.695312 C 22.933594 13.65625 22.761719 13.65625 22.59375 13.6875 L 22.59375 9.429688 C 22.964844 9.46875 23.359375 9.34375 23.644531 9.054688 C 23.875 8.828125 24 8.527344 24 8.207031 C 24 7.886719 23.875 7.585938 23.644531 7.359375 L 22.230469 5.949219 C 21.757812 5.480469 20.996094 5.480469 20.527344 5.949219 L 19.109375 7.359375 C 18.882812 7.585938 18.753906 7.886719 18.753906 8.207031 C 18.753906 8.527344 18.882812 8.832031 19.109375 9.054688 C 19.398438 9.34375 19.800781 9.46875 20.171875 9.429688 L 20.171875 10.84375 L 14.925781 10.84375 L 14.925781 4.378906 C 15.429688 4 15.734375 3.402344 15.734375 2.773438 C 15.734375 1.660156 14.828125 0.753906 13.71875 0.753906 C 12.605469 0.753906 11.699219 1.660156 11.699219 2.773438 C 11.699219 3.402344 12.003906 4 12.507812 4.378906 L 12.507812 10.84375 L 7.144531 10.839844 C 6.605469 9.480469 5.175781 8.523438 3.632812 8.523438 C 1.628906 8.523438 0 10.152344 0 12.152344 C 0 14.15625 1.628906 15.785156 3.632812 15.785156 C 5.25 15.785156 6.6875 14.742188 7.167969 13.261719 L 12.507812 13.261719 L 12.507812 19.476562 C 12.125 19.40625 11.722656 19.507812 11.445312 19.785156 C 11.214844 20.011719 11.089844 20.316406 11.089844 20.636719 C 11.089844 20.957031 11.214844 21.257812 11.445312 21.484375 L 12.859375 22.894531 C 13.09375 23.128906 13.402344 23.246094 13.710938 23.246094 C 14.019531 23.246094 14.328125 23.128906 14.5625 22.894531 L 15.9375 21.527344 C 16.289062 21.179688 16.414062 20.667969 16.253906 20.226562 C 16.121094 19.84375 15.820312 19.578125 15.433594 19.488281 C 15.269531 19.449219 15.097656 19.449219 14.925781 19.480469 L 14.925781 13.261719 L 20.171875 13.261719 L 20.171875 13.683594 C 19.789062 13.613281 19.386719 13.71875 19.109375 13.992188 C 18.882812 14.21875 18.753906 14.523438 18.753906 14.84375 C 18.753906 15.164062 18.882812 15.464844 19.109375 15.691406 L 20.527344 17.101562 C 20.996094 17.570312 21.757812 17.570312 22.230469 17.101562 L 23.601562 15.738281 C 23.953125 15.386719 24.078125 14.875 23.921875 14.433594 C 23.785156 14.054688 23.488281 13.785156 23.101562 13.695312 Z M 23.035156 15.164062 L 21.660156 16.53125 C 21.503906 16.6875 21.25 16.6875 21.09375 16.53125 L 19.679688 15.121094 C 19.601562 15.046875 19.5625 14.949219 19.5625 14.84375 C 19.5625 14.738281 19.601562 14.640625 19.679688 14.566406 C 19.820312 14.425781 20.125 14.449219 20.292969 14.613281 L 20.980469 15.296875 L 20.980469 12.457031 L 14.121094 12.457031 L 14.121094 21.089844 L 14.808594 20.40625 C 14.921875 20.292969 15.101562 20.242188 15.253906 20.277344 C 15.375 20.300781 15.453125 20.375 15.496094 20.496094 C 15.546875 20.644531 15.496094 20.828125 15.367188 20.957031 L 13.996094 22.324219 C 13.839844 22.480469 13.585938 22.480469 13.429688 22.324219 L 12.011719 20.914062 C 11.9375 20.839844 11.898438 20.742188 11.898438 20.636719 C 11.898438 20.53125 11.9375 20.433594 12.011719 20.359375 C 12.074219 20.296875 12.167969 20.265625 12.269531 20.265625 C 12.394531 20.265625 12.53125 20.316406 12.625 20.40625 L 13.3125 21.089844 L 13.3125 12.457031 L 6.535156 12.457031 L 6.464844 12.769531 C 6.183594 14.027344 4.964844 14.976562 3.632812 14.976562 C 2.074219 14.976562 0.808594 13.710938 0.808594 12.152344 C 0.808594 10.597656 2.074219 9.328125 3.632812 9.328125 C 4.910156 9.328125 6.132812 10.203125 6.472656 11.359375 L 6.554688 11.648438 L 13.3125 11.648438 L 13.3125 3.929688 L 13.113281 3.8125 C 12.734375 3.59375 12.507812 3.203125 12.507812 2.773438 C 12.507812 2.105469 13.050781 1.5625 13.71875 1.5625 C 14.382812 1.5625 14.925781 2.105469 14.925781 2.773438 C 14.925781 3.203125 14.699219 3.59375 14.320312 3.8125 L 14.121094 3.929688 L 14.121094 11.648438 L 20.980469 11.648438 L 20.980469 7.855469 L 20.292969 8.539062 C 20.152344 8.679688 19.847656 8.652344 19.679688 8.484375 C 19.601562 8.410156 19.5625 8.3125 19.5625 8.207031 C 19.5625 8.101562 19.601562 8.003906 19.679688 7.929688 L 21.09375 6.519531 C 21.25 6.363281 21.503906 6.363281 21.660156 6.519531 L 23.078125 7.929688 C 23.152344 8.003906 23.191406 8.101562 23.191406 8.207031 C 23.191406 8.3125 23.152344 8.410156 23.078125 8.484375 C 22.910156 8.652344 22.613281 8.679688 22.472656 8.539062 L 21.785156 7.855469 L 21.785156 15.296875 L 22.472656 14.613281 C 22.589844 14.5 22.769531 14.449219 22.921875 14.484375 C 23.039062 14.511719 23.117188 14.582031 23.160156 14.703125 C 23.214844 14.851562 23.160156 15.035156 23.035156 15.164062 Z M 23.035156 15.164062"/>
</svg>

<svg xmlns="http://www.w3.org/2000/svg" width="32" height="32" viewBox="0 0 24 24">
    <path d="M3.633 10.137c-1.113 0-2.02.906-2.02 2.015 0 1.114.907 2.02 2.02 2.02 1.11 0 2.015-.906 2.015-2.02a2.02 2.02 0 0 0-2.015-2.015zm0 3.226c-.668 0-1.211-.543-1.211-1.21 0-.665.543-1.208 1.21-1.208a1.21 1.21 0 0 1 1.208 1.207c0 .668-.543 1.211-1.207 1.211zm0 0"/>
    <path d="M23.102 13.695c-.168-.039-.34-.039-.508-.008V9.43a1.29 1.29 0 0 0 1.05-.375c.231-.227.356-.528.356-.848 0-.32-.125-.621-.355-.848L22.23 5.95a1.207 1.207 0 0 0-1.703 0L19.11 7.36a1.188 1.188 0 0 0 0 1.695c.29.29.692.415 1.063.376v1.414h-5.246V4.379a2.02 2.02 0 0 0 .808-1.606c0-1.113-.906-2.02-2.015-2.02-1.114 0-2.02.907-2.02 2.02 0 .63.305 1.227.809 1.606v6.465l-5.363-.004c-.54-1.36-1.97-2.317-3.512-2.317A3.635 3.635 0 0 0 0 12.153a3.636 3.636 0 0 0 3.633 3.632c1.617 0 3.054-1.043 3.535-2.523h5.34v6.215a1.191 1.191 0 0 0-1.063.308c-.23.227-.355.531-.355.852 0 .32.125.62.355.847l1.414 1.41a1.2 1.2 0 0 0 .852.352 1.2 1.2 0 0 0 .851-.351l1.376-1.368c.351-.347.476-.859.316-1.3a1.12 1.12 0 0 0-.82-.739 1.234 1.234 0 0 0-.508-.008v-6.218h5.246v.422a1.202 1.202 0 0 0-1.063.308 1.195 1.195 0 0 0 0 1.7l1.418 1.41c.47.468 1.23.468 1.703 0l1.372-1.364c.351-.351.476-.863.32-1.304a1.134 1.134 0 0 0-.82-.739zm-.067 1.47L21.66 16.53a.4.4 0 0 1-.566 0l-1.414-1.41a.375.375 0 0 1-.117-.277c0-.106.039-.203.117-.278.14-.14.445-.117.613.047l.687.684v-2.84h-6.859v8.633l.688-.684a.496.496 0 0 1 .445-.129c.121.024.2.098.242.22.05.148 0 .331-.129.46l-1.37 1.367a.4.4 0 0 1-.567 0l-1.418-1.41a.387.387 0 0 1-.114-.277c0-.106.04-.203.114-.278a.36.36 0 0 1 .258-.093.53.53 0 0 1 .355.14l.688.684v-8.633H6.535l-.07.313c-.281 1.257-1.5 2.207-2.832 2.207a2.826 2.826 0 0 1-2.824-2.825 2.828 2.828 0 0 1 2.824-2.824c1.277 0 2.5.875 2.84 2.031l.082.29h6.758v-7.72l-.2-.116a1.193 1.193 0 0 1-.605-1.04c0-.668.543-1.21 1.21-1.21.665 0 1.208.542 1.208 1.21 0 .43-.227.82-.606 1.04l-.199.117v7.718h6.86V7.855l-.688.684c-.14.14-.445.113-.613-.055a.375.375 0 0 1-.117-.277c0-.105.039-.203.117-.277l1.414-1.41a.4.4 0 0 1 .566 0l1.418 1.41a.387.387 0 0 1 .113.277c0 .105-.039.203-.113.277-.168.168-.465.196-.605.055l-.688-.684v7.442l.688-.684a.506.506 0 0 1 .449-.129.315.315 0 0 1 .238.22c.055.148 0 .331-.125.46zm0 0"/>
</svg>
